!!!COM: Palestrina, Giovanni Perluigi da
!!!OPR: Benedicta es
!!!OTL: Sanctus
**kern	**kern	**kern	**kern	**kern	**kern
*Ibass	*Ibass	*Itenor	*Icalto	*Icalto	*Icant
!Bassus 2	!Bassus 1	!Tenor	!Altus 2	!Altus 1	!Cantus
*clefF4	*clefF4	*clefGv2	*clefG2	*clefG2	*clefG2
*k[]	*k[]	*k[]	*k[]	*k[]	*k[]
*G:mix	*G:mix	*G:mix	*G:mix	*G:mix	*G:mix
*M4/2	*M4/2	*M4/2	*M4/2	*M4/2	*M4/2
=1	=1	=1	=1	=1	=1
0r	0r	0r	0d	1r	0r
.	.	.	.	[1d	.
=2	=2	=2	=2	=2	=2
0r	0r	0G	2.G	1d]	0g
.	.	.	4A	.	.
.	.	.	4B	2G	.
.	.	.	4c	.	.
.	.	.	4d	4g	.
.	.	.	4B	4f	.
=3	=3	=3	=3	=3	=3
0r	0r	2.C	4c	4e	0g
.	.	.	4d	4d	.
.	.	.	1e	1c	.
.	.	4D	.	.	.
.	.	4E	.	.	.
.	.	4F	.	.	.
.	.	4G	2d	2B	.
.	.	4E	.	.	.
=4	=4	=4	=4	=4	=4
0r	0r	2F	2c	2A	0a
.	.	2D	2f	1d	.
.	.	2.A	1e	.	.
.	.	.	.	2c#	.
.	.	4G	.	.	.
=5	=5	=5	=5	=5	=5
0r	0D	2F	2d	1d	0a
.	.	1G	4c	.	.
.	.	.	4B	.	.
.	.	.	4A	2r	.
.	.	.	4G	.	.
.	.	2F#	2A	[2d	.
=6	=6	=6	=6	=6	=6
0G	1GG	2G	4G	2d]	0b
.	.	.	4A	.	.
.	.	4d	4B	4G	.
.	.	4c	4c	4A	.
.	2.G	4B	2d	4B	.
.	.	4A	.	4c	.
.	.	[2G	2B	4d	.
.	4F	.	.	4B	.
=7	=7	=7	=7	=7	=7
2.C	4E	4G]	1.e	1.c	0g
.	4D	4F	.	.	.
.	1C	4E	.	.	.
4D	.	4D	.	.	.
4E	.	2C	.	.	.
4F	.	.	.	.	.
4G	2GG	[2D	2d	2B	.
4E	.	.	.	.	.
=8	=8	=8	=8	=8	=8
2F	0D	2D]	2.d	1A	0a
1G	.	2.d	.	.	.
.	.	.	8c	.	.
.	.	.	8B	.	.
.	.	.	1A	[1d	.
.	.	4c	.	.	.
2F#	.	2A	.	.	.
=9	=9	=9	=9	=9	=9
1G	1GG	2B	2G	0d]	0r
.	.	2G	1d	.	.
1GG	[1G	2.B	.	.	.
.	.	.	4G	.	.
.	.	4c	4A	.	.
=10	=10	=10	=10	=10	=10
2.G	1G]	1d	4B	1G	0g
.	.	.	4c	.	.
.	.	.	4d	.	.
4F	.	.	4B	.	.
2.E	2.C	1c	4c	2.g	.
.	.	.	4d	.	.
.	.	.	4e	.	.
4D	4D	.	4f	4f	.
=11	=11	=11	=11	=11	=11
1C	4E	2.G	1g	1e	1cc
.	4F	.	.	.	.
.	1G	.	.	.	.
.	.	4A	.	.	.
1D	.	4B	1r	2.d	2b
.	.	4c	.	.	.
.	2F#	[2d	.	.	[2a
.	.	.	.	4c	.
=12	=12	=12	=12	=12	=12
1GG	1G	4d]	0d	2B	4a]
.	.	4G	.	.	4g
.	.	2B	.	2G	1g
2r	1D	2A	.	1A	.
[2D	.	[2d	.	.	2f
=13	=13	=13	=13	=13	=13
2D]	0GG	4d]	1B	0G	2d
.	.	4c	.	.	.
2.G	.	4B	.	.	2.e
.	.	4A	.	.	.
.	.	1B	1d	.	.
4F	.	.	.	.	4d
4E	.	.	.	.	[2d
4D	.	.	.	.	.
=14	=14	=14	=14	=14	=14
1E	1r	1G	1.g	0r	2d]
.	.	.	.	.	2c#
1D	1D	1A	.	.	1d
.	.	.	2f	.	.
=15	=15	=15	=15	=15	=15
1r	2.G	1B	2e	2r	0r
.	.	.	2d	2d	.
.	4F	.	.	.	.
1G	4E	2r	2.e	1g	.
.	4D	.	.	.	.
.	4C	2G	.	.	.
.	4BB	.	4d	.	.
=16	=16	=16	=16	=16	=16
1A	1AA	1c	2c	2f	0r
.	.	.	2A	1e	.
2G	2E	2B	2r	.	.
2D	2F	[2A	2d	[2d	.
=17	=17	=17	=17	=17	=17
1E	1G	4A]	2B	2d]	0r
.	.	4G	.	.	.
.	.	1G	2G	2c	.
1D	2r	.	1A	[1d	.
.	[2D	2F#	.	.	.
=18	=18	=18	=18	=18	=18
2BB	2D]	2G	2B	2d]	0r
2C	1G	2G	2G	1e	.
1AA	.	[1c	1A	.	.
.	2F#	.	.	2c	.
=19	=19	=19	=19	=19	=19
1GG	1.G	2c]	2r	2e	0g
.	.	4B	2d	4d	.
.	.	4A	.	4c	.
1r	.	2B	1g	2d	.
.	2C	2c	.	2e	.
=20	=20	=20	=20	=20	=20
1r	0r	1A	2f	1c	1cc
.	.	.	2.e	.	.
2r	.	2G	.	1d	2b
.	.	.	4d	.	.
2D	.	2F	[2d	.	[2a
=21	=21	=21	=21	=21	=21
1E	0r	1G	2d]	0r	4a]
.	.	.	.	.	4g
.	.	.	2c#	.	1g
1D	.	1A	1d	.	.
.	.	.	.	.	2f#
=22	=22	=22	=22	=22	=22
[0GG	1r	1G	0B	1.d	[0g
.	[1G	2r	.	.	.
.	.	[2B	.	2d	.
=23	=23	=23	=23	=23	=23
1GG]	2G]	2B]	0r	1d	0g]
.	2G	2B	.	.	.
1r	1G	1B	.	[1e	.
=24	=24	=24	=24	=24	=24
0r	1A	2c	1r	2e]	0r
.	.	1A	.	2c	.
.	2F	.	2r	2.d	.
.	[2G	2B	[2d	.	.
.	.	.	.	4c	.
=25	=25	=25	=25	=25	=25
0r	2G]	2G	2d]	2B	0r
.	4F#	2A	2d	4A	.
.	4E	.	.	4G	.
.	2F#	2D	1d	2A	.
.	2G	2d	.	2B	.
=26	=26	=26	=26	=26	=26
0r	1C	1c	1e	2G	1r
.	.	.	.	2.c	.
.	2F	1A	2c	.	[1a
.	.	.	.	4A	.
.	2D	.	[2d	[2f	.
=27	=27	=27	=27	=27	=27
0r	1.A	1r	2d]	2f]	2a]
.	.	.	4c	4e	2a
.	.	.	4B	4d	.
.	.	2r	2c	2e	1a
.	2D	[2d	2d	2f	.
=28	=28	=28	=28	=28	=28
0r	0r	2d]	1G	2d	1b
.	.	2B	.	2g	.
.	.	2c	1r	2e	2g
.	.	4F	.	[2f	[2a
.	.	4G	.	.	.
=29	=29	=29	=29	=29	=29
0r	0r	4A	0r	2f]	2a]
.	.	4B	.	.	.
.	.	1c	.	4e	4g
.	.	.	.	4d	4f
.	.	.	.	2e	2g
.	.	2F	.	[2f	2a
=30	=30	=30	=30	=30	=30
0r	0r	1B-	1r	4f]	1d
.	.	.	.	4e	.
.	.	.	.	1d	.
.	.	1A	2r	.	1e
.	.	.	[2A	2c#	.
=31	=31	=31	=31	=31	=31
1.D	0r	1D	2A]	2.d	0d
.	.	.	2G	.	.
.	.	.	.	4e	.
.	.	2.d	1A	4f	.
.	.	.	.	4g	.
2D	.	.	.	2a	.
.	.	8c	.	.	.
.	.	8B	.	.	.
=32	=32	=32	=32	=32	=32
1D	0r	4A	1d	4f	0r
.	.	4G	.	2g	.
.	.	2A	.	.	.
.	.	.	.	4f#	.
1E	.	2G	2B	2.g	.
.	.	2G	[2c	.	.
.	.	.	.	4f	.
=33	=33	=33	=33	=33	=33
2C	0r	2A	4c]	2e	1.a
.	.	.	4B	.	.
1D	.	1F	4A	2d	.
.	.	.	4G	.	.
.	.	.	1A	1r	.
4C	.	4E	.	.	2a
4BB	.	4D	.	.	.
=34	=34	=34	=34	=34	=34
2C	1r	2E	1A	2r	1a
2D	.	2F#	.	1d	.
[1GG	2r	2.G	1G	.	2.b
.	[2G	.	.	2d	.
.	.	4A	.	.	4cc
=35	=35	=35	=35	=35	=35
1GG]	2G]	1B	2r	1d	1dd
.	2G	.	1g	.	.
1C	1G	2r	.	1e	1g
.	.	[2c	2e	.	.
=36	=36	=36	=36	=36	=36
1AA	1A	2c]	1e	1c	2.cc
.	.	2A	.	.	.
.	.	.	.	.	4b
2D	2F	2A	2f	1d	2a
4GG	[2G	[2B	2d	.	2g
4AA	.	.	.	.	.
=37	=37	=37	=37	=37	=37
4BB	2G]	2B]	2r	2.d	1dd
4C	.	.	.	.	.
1D	4F	1A	2d	.	.
.	4E	.	.	8c	.
.	.	.	.	8B	.
.	2F	.	2d	2A	2r
2GG	2G	2d	2d	2B	2g
=38	=38	=38	=38	=38	=38
2r	1C	2.c	1e	1G	2g
1G	.	.	.	.	2g
.	.	4B	.	.	.
.	[1D	1A	2.d	2r	[1dd
4F	.	.	.	2d	.
4E	.	.	8c	.	.
.	.	.	8B	.	.
=39	=39	=39	=39	=39	=39
2F	2D]	1D	2A	2d	1dd]
2G	2GG	.	2B	2d	.
1C	2r	2.G	1c	1e	2cc
.	[2G	.	.	.	2cc
.	.	4A	.	.	.
=40	=40	=40	=40	=40	=40
1.D	2G]	4B	2r	0d	2b
.	.	4c	.	.	.
.	4F#	2.d	1A	.	4a
.	4E	.	.	.	4g
.	2F#	.	.	.	2a
.	.	4c	.	.	.
[2GG	2G	4B	[2G	.	[2b
.	.	4A	.	.	.
=41	=41	=41	=41	=41	=41
4GG]	0D	1B	2G]	1d	4b]
4AA	.	.	.	.	4a
4BB	.	.	2.d	.	1g
4C	.	.	.	.	.
1D	.	1A	.	1d	.
.	.	.	4c	.	.
.	.	.	2A	.	2f#
=42	=42	=42	=42	=42	=42
0GG	0D	0G	0B	0d	0g
*	*	*	*-	*-	*-
!! Pleni
*Ibass	*Itenor	*Icalto
!Bassus	!Tenor	!Altus
*clefF4	*clefGv2	*clefG2
*k[]	*k[]	*k[]
*G:mix	*G:mix	*G:mix
*M4/2	*M4/2	*M4/2
=43	=43	=43
1D	1r	0r
2F	1A	.
2F	.	.
=44	=44	=44
1F	2c	0r
.	2c	.
2E	1c	.
4C	.	.
4D	.	.
=45	=45	=45
4E	2B	0r
4F	.	.
1G	2G	.
.	1A	.
2F#	.	.
=46	=46	=46
1G	4G	1d
.	4A	.
.	4B	.
.	4c	.
2.F	2d	2f
.	[2c	2f
4E	.	.
=47	=47	=47
1D	2c]	1f
.	2B	.
1C	[1c	2e
.	.	4c
.	.	4d
=48	=48	=48
0r	2c]	4e
.	.	4f
.	2B	1g
.	1A	.
.	.	2f#
=49	=49	=49
1E	2G	2g
.	1c	2e
2G	.	2d
2G	2B	4G
.	.	4A
=50	=50	=50
1G	4G	4B
.	4A	4c
.	4B	4d
.	4c	4e
2F	2.d	4f
.	.	4g
2D	.	[2a
.	4c	.
=51	=51	=51
1E	2B	4a]
.	.	4g
.	2G	1g
1D	1A	.
.	.	2f#
=52	=52	=52
2.GG	4G	1g
.	4A	.
.	4B	.
4AA	4c	.
4BB	[1d	1r
4C	.	.
4D	.	.
4E	.	.
=53	=53	=53
4F	2d]	0r
4G	.	.
2.A	2c	.
.	2B	.
4G	.	.
[2G	2G	.
=54	=54	=54
2G]	1A	1r
2F#	.	.
2.G	1r	1d
4F	.	.
=55	=55	=55
4D	1A	2f
4E	.	.
1F	.	2f
.	2c	1f
4E	2c	.
4D	.	.
=56	=56	=56
1C	1c	2e
.	.	2c
1GG	2B	1d
.	2G	.
=57	=57	=57
0r	1A	4c
.	.	4d
.	.	4e
.	.	4f
.	4G	2g
.	4A	.
.	4B	4G
.	4c	4A
=58	=58	=58
1r	2d	4B
.	.	4c
.	4D	2.d
.	4E	.
1D	4F	.
.	4G	4e
.	[2A	4f
.	.	4g
=59	=59	=59
2F	4A]	2a
.	4B	.
2F	2.c	2.A
1F	.	.
.	4B	4B
.	[2A	4c
.	.	4A
=60	=60	=60
2E	4A]	2B
.	4G	.
2C	1G	2c
1D	.	2.A
.	2F	.
.	.	4B
=61	=61	=61
4C	2E	1c
4D	.	.
4E	4C	.
4F	4D	.
2G	4E	2.B
.	4F	.
4GG	[2G	.
4AA	.	4c
=62	=62	=62
4BB	4G]	1d
4C	4A	.
4D	4B	.
4E	4c	.
2F	2d	1r
[2G	2B	.
=63	=63	=63
2G]	2.A	2r
2F	.	2d
.	4B	.
2E	2c	2e
2D	[2d	2f
=64	=64	=64
1E	2d]	1.g
.	2c#	.
1D	[1d	.
.	.	2f
=65	=65	=65
2r	1d]	2d
2D	.	2f
2E	1r	2e
2F	.	[2d
=66	=66	=66
1.G	0r	4d]
.	.	4c
.	.	4B
.	.	4A
.	.	2G
2F	.	2A
=67	=67	=67
2D	1r	4B
.	.	4A
2F	.	1d
1E	1G	.
.	.	2c
=68	=68	=68
1D	2A	2.f
.	2B	.
.	.	4d
1C	[1c	2e
.	.	2c
=69	=69	=69
0GG	2c]	1d
.	2B	.
.	2G	2r
.	2B	2d
=70	=70	=70
2r	1A	2e
2D	.	2f
2E	2r	2g
2F	2A	4f
.	.	4e
=71	=71	=71
1.G	2.B	4d
.	.	4c
.	.	4B
.	4c	4A
.	[1d	2B
2F	.	2A
=72	=72	=72
2D	2d]	1A
1F	2c	.
.	2A	1r
4E	[2c	.
4D	.	.
=73	=73	=73
2.C	2c]	2r
.	2B	2G
4D	.	.
2C	2A	2A
2BB	[2G	2B
=74	=74	=74
1AA	2G]	1.c
.	2F#	.
[1GG	1G	.
.	.	4B
.	.	4A
=75	=75	=75
1GG]	2r	4B
.	.	4c
.	2G	4d
.	.	4B
1r	2A	2c
.	2B	2d
=76	=76	=76
1r	1.c	1e
1G	.	1d
.	2B	.
=77	=77	=77
2A	2c	2r
2B	2B	2d
[1c	2.A	2e
.	.	2f
.	4G	.
=78	=78	=78
2c]	4E	1.g
.	4F	.
2B	2G	.
2.A	1D	.
.	.	2f
4G	.	.
=79	=79	=79
4F	2r	2d
4G	.	.
2E	2G	2e
1D	2A	[1f
.	2B	.
=80	=80	=80
1C	1.c	2f]
.	.	2e
2.G	.	1d
.	2B	.
4F	.	.
=81	=81	=81
2E	2G	2r
2D	2B	2d
2C	1A	2e
2D	.	2f
=82	=82	=82
1E	2r	1.g
.	2G	.
[1D	1A	.
.	.	2f
=83	=83	=83
1D]	1B	2d
.	.	2f
1C	1c	1e
=84	=84	=84
0GG	0B	0d
*-	*-	*-
!! Hosanna
**kern	**kern	**kern	**kern	**kern	**kern
*Ibass	*Ibass	*Itenor	*Icalto	*Icalto	*Icant
!Bassus 2	!Bassus 1	!Tenor	!Altus 2	!Altus 1	!Cantus
*clefF4	*clefF4	*clefGv2	*clefG2	*clefG2	*clefG2
*k[]	*k[]	*k[]	*k[]	*k[]	*k[]
*G:mix	*G:mix	*G:mix	*G:mix	*G:mix	*G:mix
*M3/2	*M3/2	*M3/2	*M3/2	*M3/2	*M3/2
=85	=85	=85	=85	=85	=85
1r	1r	1r	2d	1r	1r
.	.	.	2d	.	.
2r	2r	2r	2e	2r	2r
=86	=86	=86	=86	=86	=86
1r	2D	1r	1f	1r	1r
.	2D	.	.	.	.
2r	2E	2r	2e	2r	2r
=87	=87	=87	=87	=87	=87
1r	1F	1r	2c	1r	2a
.	.	.	1d	.	2a
2r	2G	2r	.	2r	2b
=88	=88	=88	=88	=88	=88
1r	2A	2A	2c	1r	1cc
.	2F	2A	2f	.	.
2r	2G	2B	2d	2r	2b
=89	=89	=89	=89	=89	=89
1r	2E	1c	2e	1r	2g
.	2F	.	2A	.	2.a
2r	2G	2B	2B	2r	.
.	.	.	.	.	4g
=90	=90	=90	=90	=90	=90
1r	2E	2G	2c	1r	1g
.	1D	1A	2.d	.	.
2r	.	.	.	2r	2f#
.	.	.	4c	.	.
=91	=91	=91	=91	=91	=91
1r	2.G	2G	4B	2d	1.g
.	.	.	4A	.	.
.	.	2B	1G	2d	.
.	4F	.	.	.	.
2r	2E	2c	.	2e	.
=92	=92	=92	=92	=92	=92
2D	2D	2.d	2A	1f	1r
2D	2r	.	2F	.	.
.	.	4c	.	.	.
2E	2r	2B	2G	2e	2r
=93	=93	=93	=93	=93	=93
1F	1r	2A	1A	2c	2a
.	.	2D	.	2.d	2a
2E	2r	2G	2r	.	2b
.	.	.	.	4c	.
=94	=94	=94	=94	=94	=94
2C	2A	2A	2r	2c	2cc
1D	2A	1F	2d	1f	2a
.	2B	.	2d	.	2dd
=95	=95	=95	=95	=95	=95
1C	1c	2G	2e	1e	1.g
.	.	2G	2c	.	.
2r	2B	2G	2d	2r	.
=96	=96	=96	=96	=96	=96
1r	2G	2E	4g	2e	2r
.	.	.	4f	.	.
.	1A	1c	4e	2e	2a
.	.	.	4d	.	.
2r	.	.	4c	2f	2a
.	.	.	4A	.	.
=97	=97	=97	=97	=97	=97
2E	2G	2B	1e	1g	2b
2E	2r	2G	.	.	1cc
2F	2r	2A	2c	2f	.
=98	=98	=98	=98	=98	=98
1G	1r	1B	1g	2d	2b
.	.	.	.	2.e	2g
2F	2r	2c	2r	.	[2a
.	.	.	.	4d	.
=99	=99	=99	=99	=99	=99
2D	1r	2d	2f	1d	2a]
1E	.	2B	2g	.	1g
.	2r	2G	2e	2c	.
=100	=100	=100	=100	=100	=100
2D	2D	2A	1f	1d	2r
2r	2D	2B	.	.	2dd
2r	2E	[2c	2e	2r	[2cc
=101	=101	=101	=101	=101	=101
1r	1F	2c]	2c	2A	4cc]
.	.	.	.	.	4b
.	.	2F	2d	2A	2a
2r	2E	2r	[2e	2B	2g
=102	=102	=102	=102	=102	=102
2r	2C	2A	2e]	2c	2.a
2r	1D	2A	1d	1F	.
.	.	.	.	.	4g
2D	.	2B	.	.	2f
=103	=103	=103	=103	=103	=103
2E	2C	1c	1r	2G	2e
2F	2AA	.	.	2A	2.a
2G	2E	2B	2r	2B	.
.	.	.	.	.	4g
=104	=104	=104	=104	=104	=104
2E	1r	2G	1r	2c	1g
1D	.	1A	.	1d	.
.	2r	.	2r	.	2f#
=105	=105	=105	=105	=105	=105
2GG	2r	1G	2d	2B	1g
2.C	2G	.	2.e	2r	.
.	[2A	2r	.	2r	2r
4AA	.	.	4c	.	.
=106	=106	=106	=106	=106	=106
2AA	4A]	2r	2c	1r	1r
.	4F	.	.	.	.
2D	2F	2r	2d	.	.
2GG	2G	2d	2B	2r	2r
=107	=107	=107	=107	=107	=107
1r	2E	2e	2G	2r	1r
.	2F	1d	2A	2r	.
2r	2G	.	2B	2d	2r
=108	=108	=108	=108	=108	=108
2G	2C	2c	2c	2.e	1r
2.A	1AA	2c	2r	.	.
.	.	.	.	4c	.
.	.	[2A	2r	2c	2r
4F	.	.	.	.	.
=109	=109	=109	=109	=109	=109
2F	2D	2A]	2r	2d	1r
2G	2GG	1G	2d	2B	.
2E	2C	.	2e	2c	2r
=110	=110	=110	=110	=110	=110
2F	2D	2r	2d	2A	2a
2G	2GG	2d	1B	1G	2.b
[2E	2r	[2e	.	.	.
.	.	.	.	.	4g
=111	=111	=111	=111	=111	=111
2E]	1r	4e]	2c	1r	2g
.	.	4c	.	.	.
2F	.	2c	1A	.	2a
2D	2r	2d	.	2r	2f
=112	=112	=112	=112	=112	=112
2G	1r	2B	1G	2r	2d
2C	.	2c	.	2r	2e
2D	2r	2A	[2d	2A	2f
=113	=113	=113	=113	=113	=113
1GG	2D	1G	2d]	2.B	1.g
.	2.E	.	2B	.	.
.	.	.	.	4G	.
2r	.	[2c	2r	2G	.
.	4C	.	.	.	.
=114	=114	=114	=114	=114	=114
1r	2C	4c]	2r	2A	2r
.	.	4B	.	.	.
.	2D	2.A	1d	2F	2a
2r	2BB	.	.	[2G	2b
.	.	4G	.	.	.
=115	=115	=115	=115	=115	=115
1r	2C	1G	2e	2G]	2g
.	1AA	.	2c	1A	1cc
2r	.	2F#	2A	.	.
=116	=116	=116	=116	=116	=116
2r	1.GG	1.G	2B	1d	2b
1G	.	.	2G	.	1b
.	.	.	2g	[2e	.
=117	=117	=117	=117	=117	=117
2.A	1r	1r	2e	4e]	2.cc
.	.	.	.	4c	.
.	.	.	2.f	2c	.
4F	.	.	.	.	4a
2F	2r	2r	.	2d	2a
.	.	.	4d	.	.
=118	=118	=118	=118	=118	=118
1G	1r	1r	2d	2B	1b
.	.	.	2.e	2G	.
2E	2r	2r	.	2g	[2cc
.	.	.	4d	.	.
=119	=119	=119	=119	=119	=119
2F	1r	2r	1c	2a	2cc]
1D	.	1d	.	1f	1dd
.	2r	.	2B	.	.
=120	=120	=120	=120	=120	=120
2C	2G	2.e	1c	2e	2g
1AA	2.A	.	.	2c	2.cc
.	.	4c	.	.	.
.	.	2c	[2A	2e	.
.	4F	.	.	.	4a
=121	=121	=121	=121	=121	=121
2D	2F	1d	2A]	2f	2a
1GG	2G	.	1G	1d	2.b
.	2G	2B	.	.	.
.	.	.	.	.	4a
=122	=122	=122	=122	=122	=122
2C	2E	2c	2r	2G	1g
1D	2D	1A	2r	1d	.
.	2r	.	2A	.	2f#
=123	=123	=123	=123	=123	=123
2GG	2D	[1.G	2.B	2d	[1.g
2r	2.E	.	.	2B	.
.	.	.	4G	.	.
2C	.	.	2G	2e	.
.	4C	.	.	.	.
=124	=124	=124	=124	=124	=124
2.E	1C	1.G]	2.g	2e	1.g]
.	.	.	.	1c	.
4D	.	.	4f	.	.
2C	[2G	.	2e	.	.
=125	=125	=125	=125	=125	=125
2BB	4G]	[1.G	2d	2d	[1.g
.	4F	.	.	.	.
2C	2.E	.	2c	2.g	.
[2G	.	.	2B	.	.
.	4D	.	.	4f	.
=126	=126	=126	=126	=126	=126
4G]	1.C	1.G]	2c	4e	1.g]
4F	.	.	.	4d	.
2E	.	.	1e	1c	.
2C	.	.	.	.	.
=127	=127	=127	=127	=127	=127
1.D	1.GG	1.G	1.d	1.B	1.g
==	==	==	==	==	==
*-	*-	*-	*-	*-	*-
!!!CDT: 1525/^1526/-1594/2/2
!!!OCY: Italia
!!!AGN: Mass (Parody)
!!!AST: renaissance, vocal
!!!ASW: Motet 1520 (Josquin)
!!!PWK: Masses, Book 11
!!!RNB: Cadence finals: D
!!!YOR: Le Opere Complete, v. 28, p. 222
!!!YOO: Rome, Italy: Fratelli Scalera
!!!END: 1992//
!!!EED: John Miller
!!!YEC: Copyright 2000, John Miller
!!!YEN: United States of America
!!!YEM: Rights to all derivative electronic formats reserved.
!!!YEM: Refer to licensing agreement for further details.
!!!YEM: This file must be accompanied by the licensing agreement.
!!!YEM: A copy of the licensing agreement may be found at http://www.music-cog.ohio-state.edu/HumdrumDatabases/Palestrina/license.txt
!!!EMD: converted to Humdrum by Bret Aarden
